X:118
T: The Blue Jig
C: Joel Mabus
M: 6/8
L: 1/8
K: C
"A7"A3 cBA | cBA a3| "A7"age  _edc | "D7"d^de  d=dc |
"A7"A3 cBA | "A7"cBA a3| "A7"age  "D7"cAG | "E7"_EDC "A"A,3::  
"D7"^FAB  cBA | ^FAB  cBA | "A7"^ce^f  gfe | ^ce^f  gfe | 
"D7"^FAB  cBA | ^FAB  cBA | "A7"age  "D7"cAG | "E7"_EDC "A"A,3:| 

%%newpage

